X: 16
%
U:~=!turn!
T: Athole's Bonnie Lasses
C:Stewart Robertson
O:Scotland
B:Keith Norman MacDonald : "The Skye collection of the best reels & strathspeys extant" : 1887
Z:Ralph Palmer
R:Reel
M:C|
L:1/8
K:G
B | {EF}G2 (DG) B,G,EB, | A,A,EA, AA,EA | {EF}G2 (DG) B,G,DB, | EGFA BGG :|
c | (BG) (B/c/)d {/f}g2 (dB) | ceTdB {/B}cAAc | (BG) (B/c/d) {/f}g2 (dB) | cedc BGGc |
(BG) (B/c/d) {/f}g2 (dB) | cedB {/B}cAAB | GDEG DGB,G | EGFA BGG |


